!!!COM: Cohen, Shmuel
!!!CDT: 1861-1941
!!!OTL: National Anthem, Israel
!!!ENC: Davis, Matthew J.
!!Vocal Line Only
**kern
*clefG2
*k[f#]
*e:
*M4/4
=1-
8e
8f#
8g
8a
4b
4b
=2
8cc
8b
8cc
8ee
=3
4a
8a
8a
4g
4g
=4
8f#
8e
8f#
8g
4.g
8B
=5
8e
8f#
8g
8a
4b
4b
=6
8cc
8b
8cc
8ee
2b
=7
4a
8a
8a
4g
4g
=8
8f#
8e
8f#
8g
2e
=9
4e
4ee
4ee
4ee
=10
8ddn
8ee
8ddn
8cc
2b
=11
4e
4ee
4ee
4ee
=12
8dd
8ee
8dd
8cc
2b
=13
4dd
8dd
8dd
4g
4g
=14
8a
8b
8cc
8dd
4b
8a
8g
=15
4a
4a
4g
8.g
16g
=16
8f#
8e
8f#
8g
2e
=17
4a
8a
8a
4g
4g
=18
8a
8b
8cc
8dd
4b
8a
8g
=19
4a
4a
4g
8.g
16g
=20
8f#
8e
8f#
8g
2e
==|!
*-
